storage/app/icons/phosphoricons/duotone/dots-six-duotone.svg

<svg xmlns="http://www.w3.org/2000/svg" fill="currentColor" viewBox="0 0 256 256"><path d="M240 64v128a16 16 0 0 1-16 16H32a16 16 0 0 1-16-16V64a16 16 0 0 1 16-16h192a16 16 0 0 1 16 16" opacity=".2"/><path d="M72 92a12 12 0 1 1-12-12 12 12 0 0 1 12 12m56-12a12 12 0 1 0 12 12 12 12 0 0 0-12-12m68 24a12 12 0 1 0-12-12 12 12 0 0 0 12 12M60 152a12 12 0 1 0 12 12 12 12 0 0 0-12-12m68 0a12 12 0 1 0 12 12 12 12 0 0 0-12-12m68 0a12 12 0 1 0 12 12 12 12 0 0 0-12-12"/></svg>

<svg xmlns="http://www.w3.org/2000/svg" viewBox="0 0 256 256" fill="currentColor"><path d="M240,64V192a16,16,0,0,1-16,16H32a16,16,0,0,1-16-16V64A16,16,0,0,1,32,48H224A16,16,0,0,1,240,64Z" opacity="0.2"/><path d="M72,92A12,12,0,1,1,60,80,12,12,0,0,1,72,92Zm56-12a12,12,0,1,0,12,12A12,12,0,0,0,128,80Zm68,24a12,12,0,1,0-12-12A12,12,0,0,0,196,104ZM60,152a12,12,0,1,0,12,12A12,12,0,0,0,60,152Zm68,0a12,12,0,1,0,12,12A12,12,0,0,0,128,152Zm68,0a12,12,0,1,0,12,12A12,12,0,0,0,196,152Z"/></svg>
